X:1
T:Somebody Else Needs a Blessing
T:Somebody Else Needs a Blessing
T:Bentley DeForest Ackley
T:Eliza Edmunds Stites Hewitt, 1917
T:Public Domain Courtesy of the Cyber Hymnal™
T:Public Domain Courtesy of the Cyber Hymnal™
C:Bentley DeForest Ackley
Z:Public Domain
Z:Courtesy of the Cyber Hymnal™
%%score ( 1 2 ) ( 3 4 )
L:1/8
Q:1/4=100
M:6/8
K:F
V:1 treble 
V:2 treble 
V:3 bass 
V:4 bass 
V:1
 [CF] | [CF]C[CF] [CA]F[FA] | [Fc][F=B][Fd] [Fc]2 [FA] | [EB][EG][EB] [FA][CG][CF] | %4
w: 1.~We’re|“count- ing” the bless- ings, our|joys we re- cord, The|won- der- ful mer- cies like|
w: 2.~We’ll|go, like the Sav- ior, to|com- fort the sad; With|love’s heal- ing por- tion we’ll|
w: 3.~We’ll|tell the old sto- ry a-|gain and a- gain; Sal-|va- tion for sin- ners, good|
 [=B,D][CE][DF] [EG]2 [CF] | [CF]C[CF] [CA]F[FA] | [Fc][F=B][Fd] [Fc]3 | [EG]E[Ec] [F=B][FA][FB] | %8
w: sun- beams out- poured; But|let us re- mem- ber while|prais- ing the Lord,|Some- bo- dy else needs a|
w: make o- thers glad, Un-|til, with fresh ver- dure, life’s|des- erts are clad;|Some- bo- dy else needs a|
w: will un- to men, Till|Gos- pel songs e- cho from|mount- ain to glen;|Some- bo- dy else needs a|
 [Fd]3 [Ec]3 ||"^Refrain" [Fc][Fd][Fc] [FA]F[FG] | [FA]3 [FA]2 z x2 | [Fc][Fd][Fc] [FA][CG][CF] | %12
w: bless- ing.||||
w: bless- ing.|Some- bo- dy else needs a|bless- ing,|Some- bo- dy else needs a|
w: bless- ing.||||
 [EG]3 [Ec]2 [GB] x2 | [FA]G[FA] [EB][^DA][EB] | [Fc][F=B][Fc] [Fd]3 | [Fc][Fd][Fc] F[FG][FA] | %16
w: ||||
w: bless- ing; We’ll|let our lights shine to His|glo- ry di- vine,|Some- bo- dy else needs a|
w: ||||
 [EG]3 [CF]2 |] %17
w: |
w: bless- ing.|
w: |
V:2
 x | x C x F x2 | x6 | x6 | x6 | x C x F x2 | x6 | x E x4 | x6 || x4 F x | x8 | x6 | x8 | x G x4 | %14
 x6 | x3 F x2 | x5 |] %17
V:3
 [F,A,] | [F,A,][F,A,][F,A,] [F,C][F,A,][F,C] | [F,A,][F,^G,][F,B,] [F,A,]2 [F,C] | %3
 [C,C][C,C][C,C] [F,C][F,B,][F,A,] | G,G,[G,,G,=B,] [C,_B,]2 [F,A,] | %5
 [F,A,][F,A,][F,A,] [F,C][F,A,][F,C] | [F,A,][F,^G,][F,B,] [F,A,]3 | %7
 [G,C][G,C][G,C] [G,D][G,C][G,D] | [G,=B,]3 (C2 _B,) || [F,A,][F,B,][F,A,] [F,C][F,A,][F,B,] | %10
 (z [F,A,]2) x5 | [F,A,][F,B,][F,A,] [F,C][F,B,][F,A,] | (z z [E,C]) x5 | %13
 [F,C][E,C][F,C] [G,C][^F,C][G,C] | [A,C][^G,D][A,C] B,3 | [F,A,][F,B,][F,A,] [F,A,][F,B,][F,C] | %16
 [C,B,]3 [F,A,]2 |] %17
V:4
 x | x6 | x6 | x6 | G,G, x4 | x6 | x6 | x6 | x3 C,3 || x6 | ([F,A,]3 C,A,,) (F,,A,,C,) | x6 | %12
 ([C,C]3 E,G,) ([C,G,]2 D,) | x6 | x3 B,3 | x6 | x5 |] %17

